X:1545
T:"From Shore To Shore"   (reel)   1545
C:Unattributed
B:O'Neill's Music Of Ireland (The 1850) Lyon & Healy, Chicago, 1903 edition
Z:FROM O'NEILL'S TO NOTEWORTHY, FROM NOTEWORTHY TO ABC, MIDI AND .TXT BY VINCE
BRENNAN July 2003 (HTTP://WWW.SOSYOURMOM.COM)
I:abc2nwc
M:C|
L:1/8
K:G
|:Bdd^c egdg| (3(efg) (dg) fafd|Bdd^c egdg|[1cAFD (BG) G2:|[2fdcA BG G2||
bgfg egdg|bgfg (fa) a2|bgfg egdg|cAFD BG~G2|
bgfg egdg|bgfg fa a2| (3(bag)  (3(agf)  (3(gfe)  (3(dcB)|cAFD (BG) G2|]
